X:1
T:Title
%%score ( 1 2 ) 3
L:1/8
Q:1/4=85
M:6/8
K:C
V:1 treble nm="Grand Piano, Soprano"
V:2 treble 
V:3 bass nm="Choir Aahs, Wait to Be Honored Above"
V:1
 [CE]/[DF]<[EG][EG]/ [EG][FA]<[Ac] | [FA] [EG]2- [EG]2- [EG]/ z/ | B/c<[Gd][Gd]/ [Gd][Gd][Ge] | %3
w: By~J.~M.~Wright * * * * * *|||
 [Fd] [Ec]2- [Ec]2- [Ec]/ z/ | [CE]/[DF]<[EG][EG]/ [EG][FA]<[Ac] | [FA] [EG]2- [EG]2- [EG]/ z/ | %6
w: |||
 [Ge]/[Ge]<[Gd][GB]/ [GB][^FB][Fc] | [^FA] G2- G2- G/ z/ | B/c<[Gd][Gd]/ [Gd][Gd][Ge] | %9
w: |||
 [Fd] [Ec]2- [Ec]2- [Ec]/ z/ | c/B<[FA][FA]/ [FA][^FA][FB] | [^Fc] [Gd]2- [Gd]2- [Gd]/ z/ | %12
w: |||
 [CE]/[DF]<[EG][EG]/ [EG][FA]<[Ac] | [FA] [EG]2- [EG]2- [EG]/ z/ | [Ge][Fd]>[FG] [FG][FG][FA] | %15
w: |||
 [FB] [Ec]2- [Ec]2- [Ec]/ z/ | [CE]/[DF]/ [EG]2- [EG]3/2 z/ [Ec] | [CG] [FA]2- [FA]3/2 z/ [FB] | %18
w: |||
 [Ac][Gd]>[Gd] [Gd][Gd][Ge] | [Fd] [Ec]2- [Ec]2- [Ec]/ z/ | [CE]/[DF]/ [EG]2- [EG]3/2 z/ [Ec] | %21
w: |||
 [CG] [FA]2- [FA]3/2 z/ [FB] | [Ac][Gd]>G G[FG][FA] | [FB] [Ec]2- [Ec]3- | [Ec]3 z3 |] %25
w: ||||
V:2
 x6 | x6 | .E3 z3 | x6 | x6 | x6 | x6 | x6 | .G3 z3 | x6 | .E3 z3 | x6 | x6 | x6 | x6 | x6 | x6 | %17
 x6 | x6 | x6 | x6 | x6 | x6 | x6 | x6 |] %25
V:3
 [C,C][C,C]>[C,C] [C,C][F,C]<[F,C] | [F,C] [C,C]2- [C,C]2- [C,C]/ z/ | %2
 [C,C][G,B,]>[G,B,] [G,B,][G,B,][G,C] | [G,B,] [C,C]2- [C,C]2- [C,C]/ z/ | %4
 [C,C][C,C]>[C,C] [C,C][F,C]<[F,C] | [F,C] [C,C]2- [C,C]2- [C,C]/ z/ | %6
 [C,C][D,B,]>[D,D] [D,D][D,D][D,D] | [D,C] [G,B,]2- [G,B,]2- [G,B,]/ z/ | %8
 [G,B,][G,B,]>[G,B,] [G,B,][G,B,][G,C] | [G,B,] [C,C]2- [C,C]2- [C,C]/ z/ | %10
 [C,C][F,C]>[F,C] [F,C][D,D][D,D] | [D,D] [G,B,]2- [G,B,]2- [G,B,]/ z/ | %12
 [C,C][C,C]>[C,C] [C,C][F,C]<[F,C] | [F,C] [C,C]2- [C,C]2- [C,C]/ z/ | %14
 [C,C][G,B,]>[G,B,] [G,B,][G,,D][G,,D] | [G,,D] [C,C]2- [C,C]2- [C,C]/ z/ | %16
 [C,C][C,C][C,C] [C,C][C,C][C,C] | [E,C][F,C][F,C] [F,C][F,C][F,C] | %18
 [F,C][G,B,]>[G,B,] [G,B,][G,,B,][G,,C] | [G,,B,][C,C][G,C] [E,C][C,C][C,C] | %20
 [C,C][C,C][C,C] [C,C][C,C][C,C] | [E,C][F,C][F,C] [F,C][F,C][F,C] | %22
 [F,C][G,B,]>[G,B,] [G,B,][G,,D][G,,D] | [G,,D][C,C][G,C] [E,G,] [C,G,]2- | [C,G,]3 z3 |] %25

